; generated by PrusaSlicer 2.6.0+MacOS-arm64 on 2023-08-03 at 19:54:09 UTC


;
;

;
;
; 

; external perimeters extrusion width = 0.45mm
; perimeters extrusion width = 0.45mm
; infill extrusion width = 0.45mm
; solid infill extrusion width = 0.45mm
; top infill extrusion width = 0.40mm
; first layer extrusion width = 0.42mm

M73 P0 R22
M201 X2500 Y2500 Z400 E5000 ; sets maximum accelerations, mm/sec^2
M203 X180 Y180 Z12 E80 ; sets maximum feedrates, mm / sec
M204 P2000 R1250 T2500 ; sets acceleration (P, T) and retract acceleration (R), mm/sec^2
M205 X8.00 Y8.00 Z2.00 E10.00 ; sets the jerk limits, mm/sec
M205 S0 T0 ; sets the minimum extruding and travel feed rate, mm/sec
;TYPE:Custom
M862.3 P "MINI" ; printer model check
G90 ; use absolute coordinates
M83 ; extruder relative mode
M104 S170 ; set extruder temp for bed leveling
M140 S60 ; set bed temp
M109 R170 ; wait for bed leveling temp
M190 S60 ; wait for bed temp
M204 T1250 ; set travel acceleration
G28 ; home all without mesh bed level
G29 ; mesh bed leveling 
M204 T2500 ; restore travel acceleration
M104 S225 ; set extruder temp
G92 E0
G1 Y-2 X179 F2400
G1 Z3 F720
M109 S225 ; wait for extruder temp

; intro line
G1 X170 F1000
G1 Z0.2 F720
G1 X110 E8 F900
G1 X40 E10 F700
G92 E0

M221 S95 ; set flow
G21 ; set units to millimeters
G90 ; use absolute coordinates
M83 ; use relative distances for extrusion
M900 K0.2 ; Filament gcode LA 1.5
; ; Filament gcode LA 1.0
M107
;LAYER_CHANGE
;Z:0.2
;HEIGHT:0.2
;BEFORE_LAYER_CHANGE
G92 E0.0
;0.2


G1 E-3.2 F4200
M73 P1 R22
G1 Z.2 F720
;AFTER_LAYER_CHANGE
;0.2
G1 Z.4
G1 X80.568 Y79.93 F9000
G1 Z.2 F720
G1 E3.2 F2400
M204 P600
;TYPE:Skirt/Brim
;WIDTH:0.42
G1 F1200
G1 X81.347 Y79.144 E.0347
G1 X82.449 Y78.219 E.04511
G1 X83.533 Y77.467 E.04137
G1 X84.678 Y76.812 E.04136
G1 X86.378 Y76.064 E.05823
G1 X87.635 Y75.662 E.04138
G1 X89.039 Y75.351 E.04509
G1 X90.886 Y75.149 E.05826
G1 X92.205 Y75.143 E.04136
G1 X93.52 Y75.253 E.04137
G1 X94.937 Y75.503 E.04512
G1 X96.21 Y75.849 E.04136
G1 X97.941 Y76.523 E.05824
G1 X99.114 Y77.127 E.04137
G1 X100.327 Y77.9 E.0451
G1 X101.776 Y79.063 E.05826
G1 X102.712 Y79.992 E.04135
G1 X103.637 Y81.095 E.04514
G1 X104.39 Y82.178 E.04136
G1 X105.045 Y83.323 E.04136
G1 X105.793 Y85.024 E.05826
G1 X106.226 Y86.396 E.04511
G1 X106.506 Y87.685 E.04136
G1 X106.673 Y88.993 E.04134
G1 X106.714 Y90.851 E.05827
G1 X106.604 Y92.165 E.04134
G1 X106.354 Y93.582 E.04512
G1 X106.007 Y94.855 E.04137
G1 X105.334 Y96.586 E.05823
G1 X104.73 Y97.759 E.04137
G1 X103.957 Y98.973 E.04513
G1 X102.794 Y100.421 E.05823
G1 X101.865 Y101.358 E.04137
G1 X100.858 Y102.21 E.04136
G1 X99.679 Y103.035 E.04512
G1 X98.534 Y103.69 E.04136
G1 X96.833 Y104.438 E.05826
G1 X95.461 Y104.871 E.04511
G1 X94.172 Y105.151 E.04136
G1 X92.864 Y105.318 E.04134
G1 X91.006 Y105.359 E.05827
G1 X89.692 Y105.249 E.04134
G1 X88.275 Y104.999 E.04512
G1 X86.491 Y104.479 E.05826
G1 X85.27 Y103.98 E.04136
G1 X84.098 Y103.375 E.04135
G1 X82.884 Y102.602 E.04513
G1 X81.841 Y101.795 E.04135
G1 X80.499 Y100.51 E.05826
G1 X79.574 Y99.408 E.04511
G1 X78.822 Y98.324 E.04137
G1 X78.167 Y97.179 E.04136
G1 X77.419 Y95.479 E.05823
G1 X77.017 Y94.222 E.04138
G1 X76.706 Y92.817 E.04512
G1 X76.503 Y90.971 E.05823
G1 X76.498 Y89.652 E.04136
G1 X76.608 Y88.337 E.04137
G1 X76.858 Y86.92 E.04512
G1 X77.204 Y85.647 E.04136
G1 X77.877 Y83.916 E.05823
G1 X78.482 Y82.743 E.04138
G1 X79.255 Y81.53 E.0451
G1 X80.418 Y80.081 E.05826
G1 X80.525 Y79.972 E.00479
M204 P1000
G1 X80.793 Y80.238 F9000
M204 P600
G1 F1200
G1 X81.608 Y79.417 E.03627
G1 X82.59 Y78.587 E.04031
G1 X83.728 Y77.79 E.04356
G1 X84.844 Y77.15 E.04034
G1 X86.515 Y76.415 E.05724
G1 X87.74 Y76.024 E.04032
G1 X89.097 Y75.724 E.04358
G1 X90.911 Y75.525 E.05722
G1 X92.197 Y75.52 E.04032
G1 X93.581 Y75.642 E.04356
G1 X94.847 Y75.869 E.04033
G1 X96.088 Y76.207 E.04033
G1 X97.789 Y76.868 E.05722
G1 X98.932 Y77.458 E.04033
G1 X100.104 Y78.205 E.04358
G1 X101.527 Y79.347 E.05721
G1 X102.44 Y80.253 E.04033
G1 X103.27 Y81.235 E.04031
G1 X104.067 Y82.374 E.04359
G1 X104.707 Y83.49 E.04034
G1 X105.442 Y85.16 E.05721
G1 X105.833 Y86.385 E.04032
G1 X106.133 Y87.742 E.04358
G1 X106.297 Y89.018 E.04034
G1 X106.337 Y90.842 E.0572
G1 X106.229 Y92.124 E.04034
G1 X105.988 Y93.493 E.04358
G1 X105.477 Y95.245 E.05722
G1 X104.989 Y96.435 E.04033
G1 X104.399 Y97.578 E.04033
G1 X103.652 Y98.75 E.04358
G1 X102.51 Y100.173 E.05721
G1 X101.604 Y101.085 E.04031
G1 X100.622 Y101.916 E.04033
G1 X99.483 Y102.713 E.04359
G1 X98.367 Y103.352 E.04032
G1 X96.697 Y104.087 E.05721
G1 X95.472 Y104.478 E.04032
G1 X94.115 Y104.779 E.04358
G1 X92.839 Y104.942 E.04033
G1 X91.015 Y104.982 E.0572
G1 X89.733 Y104.874 E.04034
G1 X88.364 Y104.633 E.04358
G1 X86.612 Y104.122 E.05722
G1 X85.422 Y103.634 E.04033
G1 X84.279 Y103.044 E.04033
G1 X83.107 Y102.298 E.04356
G1 X82.09 Y101.511 E.04032
G1 X80.771 Y100.249 E.05724
G1 X79.941 Y99.267 E.04031
G1 X79.144 Y98.129 E.04356
G1 X78.505 Y97.013 E.04032
G1 X77.77 Y95.342 E.05724
G1 X77.379 Y94.117 E.04032
G1 X77.078 Y92.76 E.04358
G1 X76.88 Y90.946 E.05721
G1 X76.875 Y89.66 E.04032
G1 X76.996 Y88.275 E.04359
G1 X77.224 Y87.01 E.0403
G1 X77.561 Y85.769 E.04032
G1 X78.223 Y84.068 E.05723
G1 X78.812 Y82.925 E.04032
G1 X79.559 Y81.753 E.04358
G1 X80.75 Y80.28 E.05939
M204 P1000
; printing object bottompart.stl id:0 copy 0
G1 E-2.24 F4200
;WIPE_START
G1 F7200
G1 X81.608 Y79.417 E-.67439
G1 X82.002 Y79.084 E-.28561
;WIPE_END
G1 Z.4 F720
G1 X85.703 Y87.998 F9000
G1 X85.703 Y92.504
G1 X90.961 Y93.542
G1 X91.103 Y93.567
G1 X91.246 Y93.585
G1 X91.39 Y93.597
G1 X91.534 Y93.604
G1 X91.678 Y93.604
G1 X91.822 Y93.597
G1 X91.966 Y93.585
G1 X92.108 Y93.567
G1 X92.152 Y93.559
G1 X96.734 Y100.142
G1 Z.2 F720
G1 E3.2 F2400
M204 P600
;TYPE:Perimeter
;WIDTH:0.419999
G1 F1200
G1 X96.323 Y100.352 E.01447
G1 X95.419 Y100.727 E.03069
G1 X94.491 Y101.019 E.0305
G1 X93.542 Y101.23 E.03048
G1 X92.577 Y101.356 E.03051
G1 X91.717 Y101.394 E.02699
G1 X91.126 Y101.389 E.01853
G1 X90.151 Y101.304 E.03069
G1 X89.193 Y101.135 E.0305
G1 X88.362 Y100.912 E.02698
G1 X87.799 Y100.729 E.01856
G1 X86.997 Y100.397 E.02722
G1 X86.464 Y100.143 E.01851
G1 X85.616 Y99.653 E.03071
G1 X84.819 Y99.095 E.03051
G1 X84.075 Y98.47 E.03047
M73 P2 R22
G1 X83.387 Y97.782 E.03051
G1 X82.762 Y97.037 E.03049
G1 X82.204 Y96.241 E.03048
G1 X81.75 Y95.455 E.02846
G1 X81.505 Y94.968 E.01709
G1 X81.13 Y94.064 E.03069
G1 X80.838 Y93.136 E.0305
G1 X80.627 Y92.187 E.03048
G1 X80.5 Y91.223 E.03049
G1 X80.461 Y90.321 E.02831
G1 X80.468 Y89.771 E.01725
G1 X80.553 Y88.796 E.03069
G1 X80.722 Y87.838 E.0305
G1 X80.958 Y86.96 E.02851
G1 X81.128 Y86.444 E.01703
G1 X81.478 Y85.599 E.02868
G1 X81.714 Y85.109 E.01705
G1 X82.204 Y84.261 E.03071
G1 X82.762 Y83.465 E.03048
G1 X83.387 Y82.72 E.03049
G1 X84.075 Y82.032 E.03051
G1 X84.819 Y81.407 E.03047
G1 X85.616 Y80.849 E.03051
G1 X86.362 Y80.419 E.027
G1 X86.889 Y80.15 E.01855
G1 X87.793 Y79.776 E.03067
G1 X88.721 Y79.483 E.03051
G1 X89.67 Y79.273 E.03047
G1 X90.524 Y79.16 E.02701
G1 X91.114 Y79.114 E.01856
G1 X91.937 Y79.11 E.0258
G1 X92.483 Y79.14 E.01715
G1 X93.055 Y79.198 E.01803
G1 X94.019 Y79.368 E.03069
G1 X94.85 Y79.59 E.02697
G1 X95.413 Y79.773 E.01856
G1 X96.214 Y80.105 E.02719
G1 X96.748 Y80.36 E.01855
G1 X97.595 Y80.849 E.03067
G1 X98.392 Y81.407 E.03051
G1 X99.137 Y82.032 E.03049
G1 X99.825 Y82.72 E.03051
G1 X100.45 Y83.465 E.03049
G1 X101.008 Y84.262 E.03051
G1 X101.462 Y85.048 E.02846
G1 X101.707 Y85.534 E.01706
G1 X102.081 Y86.438 E.03067
G1 X102.402 Y87.495 E.03464
G1 X102.597 Y88.413 E.02943
G1 X102.715 Y89.38 E.03054
G1 X102.752 Y90.334 E.02993
G1 X102.743 Y90.731 E.01245
G1 X102.658 Y91.706 E.03069
G1 X102.489 Y92.664 E.0305
G1 X102.254 Y93.542 E.0285
G1 X102.084 Y94.058 E.01703
G1 X101.733 Y94.904 E.02872
G1 X101.497 Y95.393 E.01702
G1 X101.008 Y96.241 E.03069
G1 X100.45 Y97.037 E.03048
G1 X99.825 Y97.782 E.03049
G1 X99.137 Y98.47 E.03051
G1 X98.392 Y99.095 E.03049
G1 X97.595 Y99.653 E.03051
G1 X96.788 Y100.115 E.02916
M204 P1000
G1 X96.905 Y100.478 F9000
M204 P600
;TYPE:External perimeter
G1 F1200
G1 X96.479 Y100.696 E.015
G1 X95.548 Y101.081 E.03159
G1 X94.589 Y101.384 E.03153
G1 X93.607 Y101.601 E.03153
G1 X92.61 Y101.732 E.03153
G1 X91.734 Y101.771 E.02749
G1 X91.105 Y101.766 E.01972
G1 X90.101 Y101.678 E.0316
G1 X89.111 Y101.503 E.03152
G1 X88.264 Y101.276 E.02749
G1 X87.666 Y101.082 E.01971
G1 X86.853 Y100.745 E.02759
G1 X86.286 Y100.475 E.01969
G1 X85.413 Y99.971 E.03161
G1 X84.59 Y99.395 E.0315
G1 X83.82 Y98.748 E.03153
G1 X83.109 Y98.037 E.03153
G1 X82.462 Y97.267 E.03153
G1 X81.886 Y96.444 E.0315
G1 X81.423 Y95.643 E.02901
G1 X81.161 Y95.124 E.01823
G1 X80.776 Y94.193 E.03159
G1 X80.473 Y93.234 E.03153
G1 X80.256 Y92.252 E.03153
G1 X80.124 Y91.256 E.0315
G1 X80.084 Y90.337 E.02884
G1 X80.091 Y89.751 E.01837
G1 X80.179 Y88.747 E.0316
G1 X80.354 Y87.757 E.03152
G1 X80.593 Y86.863 E.02902
G1 X80.775 Y86.311 E.01822
G1 X81.13 Y85.454 E.02908
G1 X81.382 Y84.931 E.0182
G1 X81.886 Y84.059 E.03158
G1 X82.462 Y83.235 E.03152
G1 X83.109 Y82.465 E.03153
G1 X83.82 Y81.754 E.03153
G1 X84.59 Y81.108 E.03151
G1 X85.413 Y80.531 E.03151
G1 X86.173 Y80.092 E.02752
G1 X86.733 Y79.807 E.0197
G1 X87.664 Y79.421 E.0316
G1 X88.623 Y79.119 E.03152
G1 X89.604 Y78.901 E.03151
G1 X90.474 Y78.787 E.02751
G1 X91.101 Y78.737 E.01972
G1 X91.946 Y78.733 E.02649
G1 X92.503 Y78.764 E.01749
G1 X93.108 Y78.824 E.01906
G1 X94.1 Y78.999 E.03158
G1 X94.948 Y79.226 E.02752
G1 X95.546 Y79.42 E.01971
G1 X96.358 Y79.757 E.02757
G1 X96.926 Y80.027 E.01972
G1 X97.798 Y80.531 E.03158
G1 X98.622 Y81.108 E.03154
G1 X99.392 Y81.754 E.03151
G1 X100.103 Y82.465 E.03153
G1 X100.749 Y83.235 E.03151
G1 X101.326 Y84.059 E.03154
G1 X101.788 Y84.859 E.02897
G1 X102.05 Y85.378 E.01823
G1 X102.436 Y86.309 E.0316
G1 X102.77 Y87.413 E.03616
G1 X102.971 Y88.364 E.03048
G1 X103.092 Y89.364 E.03158
G1 X103.129 Y90.342 E.03069
G1 X103.12 Y90.752 E.01286
G1 X103.032 Y91.755 E.03157
G1 X102.858 Y92.746 E.03155
G1 X102.618 Y93.64 E.02902
G1 X102.437 Y94.191 E.01818
G1 X102.082 Y95.048 E.02908
G1 X101.83 Y95.571 E.0182
G1 X101.326 Y96.444 E.03161
G1 X100.749 Y97.267 E.03151
G1 X100.103 Y98.037 E.03151
G1 X99.392 Y98.748 E.03153
G1 X98.622 Y99.395 E.03153
G1 X97.798 Y99.971 E.03152
G1 X96.958 Y100.451 E.03033
M204 P1000
G1 X96.563 Y100.271 F9000
G1 E-3.2 F4200
G1 Z.4 F720
G1 X98.103 Y87.94 F9000
G1 Z.2 F720
G1 E3.2 F2400
M204 P600
;TYPE:Perimeter
G1 F1200
G1 X98.107 Y92.537 E.14414
G1 X98.064 Y92.753 E.00691
G1 X97.962 Y92.915 E.006
G1 X97.706 Y93.078 E.00952
G1 X97.049 Y93.103 E.02061
G1 X94.318 Y93.103 E.08563
G1 X93.861 Y93.493 E.01884
G1 X93.229 Y93.851 E.02277
G1 X92.578 Y94.08 E.02164
G1 X91.8 Y94.191 E.02464
G1 X90.931 Y94.14 E.02729
G1 X90.364 Y93.983 E.01845
G1 X89.942 Y93.828 E.0141
G1 X89.35 Y93.492 E.02134
G1 X88.894 Y93.103 E.01879
G1 X85.67 Y93.103 E.10109
G1 X85.374 Y93.019 E.00965
G1 X85.249 Y92.915 E.0051
G1 X85.13 Y92.707 E.00751
G1 X85.104 Y91.795 E.02861
G1 X85.104 Y87.965 E.12009
G1 X85.147 Y87.749 E.00691
G1 X85.249 Y87.587 E.006
G1 X85.505 Y87.424 E.00952
G1 X86.163 Y87.399 E.02065
G1 X88.894 Y87.4 E.08563
G1 X89.35 Y87.01 E.01881
G1 X89.982 Y86.651 E.02279
G1 X90.633 Y86.423 E.02163
G1 X91.457 Y86.305 E.0261
G1 X91.975 Y86.336 E.01627
G1 X92.425 Y86.388 E.0142
G1 X93.119 Y86.603 E.02278
G1 X93.722 Y86.931 E.02152
G1 X93.959 Y87.08 E.00878
G1 X94.318 Y87.4 E.01508
G1 X97.542 Y87.4 E.10109
G1 X97.838 Y87.483 E.00964
G1 X98.005 Y87.641 E.00721
G1 X98.098 Y87.881 E.00807
M204 P1000
G1 X97.73 Y87.965 F9000
M204 P600
;TYPE:External perimeter
G1 F1200
G1 X97.73 Y92.537 E.14335
G1 X97.682 Y92.663 E.00423
G1 X97.542 Y92.726 E.00481
G1 X94.175 Y92.725 E.10557
G1 X93.708 Y93.141 E.01961
G1 X93.084 Y93.5 E.02257
G1 X92.459 Y93.722 E.0208
G1 X91.751 Y93.817 E.0224
G1 X90.963 Y93.764 E.02476
G1 X90.128 Y93.5 E.02746
G1 X89.536 Y93.164 E.02134
G1 X89.037 Y92.726 E.02082
G1 X85.67 Y92.726 E.10557
G1 X85.53 Y92.663 E.00481
G1 X85.481 Y92.537 E.00424
G1 X85.481 Y87.965 E.14335
G1 X85.53 Y87.839 E.00424
G1 X85.67 Y87.777 E.0048
G1 X89.037 Y87.777 E.10557
G1 X89.504 Y87.361 E.01961
G1 X90.127 Y87.003 E.02253
G1 X90.753 Y86.78 E.02084
G1 X91.506 Y86.679 E.02382
G1 X92.203 Y86.734 E.02192
G1 X92.735 Y86.879 E.01729
G1 X93.084 Y87.002 E.0116
G1 X93.676 Y87.338 E.02134
G1 X94.175 Y87.777 E.02084
G1 X97.542 Y87.777 E.10557
G1 X97.682 Y87.839 E.0048
G1 X97.709 Y87.909 E.00235
M204 P1000
G1 X98.117 Y88.069 F9000
G1 E-3.2 F4200
G1 Z.4 F720
G1 X100.603 Y83.979 F9000
G1 Z.2 F720
G1 E3.2 F2400
M204 P600
;TYPE:Solid infill
;WIDTH:0.421757
G1 F1200
G1 X98.899 Y82.276 E.07589
G1 X98.185 Y81.677 E.02936
G1 X97.413 Y81.136 E.0297
G1 X96.965 Y80.877 E.0163
G1 X100.98 Y84.892 E.17886
G1 X101.198 Y85.269 E.01372
G1 X101.518 Y85.966 E.02416
G1 X95.891 Y80.339 E.25067
G1 X95.293 Y80.091 E.02039
M73 P2 R21
G1 X95.012 Y79.996 E.00934
G1 X101.85 Y86.834 E.30462
G1 X102.077 Y87.597 E.02508
G1 X94.266 Y79.785 E.34799
G1 X93.945 Y79.699 E.01047
G1 X93.58 Y79.635 E.01167
G1 X102.23 Y88.285 E.38534
G1 X102.32 Y88.911 E.01992
M73 P3 R21
G1 X92.935 Y79.526 E.41809
G1 X92.346 Y79.473 E.01863
G1 X102.381 Y89.508 E.44704
G1 X102.406 Y90.068 E.01766
G1 X91.792 Y79.455 E.47281
G1 X91.255 Y79.454 E.01692
G1 X102.407 Y90.605 E.49678
G1 X102.37 Y91.104 E.01576
G1 X90.744 Y79.478 E.51792
G1 X90.267 Y79.537 E.01514
G1 X102.327 Y91.597 E.53725
G1 X102.252 Y92.057 E.01468
G1 X98.447 Y88.252 E.16951
G1 X98.447 Y88.788 E.01688
G1 X102.171 Y92.513 E.16592
G1 X102.064 Y92.941 E.0139
G1 X98.447 Y89.324 E.16113
G1 X98.447 Y89.859 E.01685
G1 X101.951 Y93.363 E.1561
G1 X101.823 Y93.771 E.01347
G1 X98.447 Y90.395 E.1504
G1 X98.447 Y90.931 E.01688
G1 X101.675 Y94.159 E.1438
G1 X101.518 Y94.538 E.01292
G1 X98.447 Y91.467 E.13681
G1 X98.447 Y92.002 E.01685
G1 X101.356 Y94.912 E.12961
G1 X101.177 Y95.269 E.01258
G1 X98.447 Y92.538 E.12164
G1 X98.434 Y92.692 E.00487
G1 X98.377 Y92.888 E.00643
G1 X98.332 Y92.96 E.00267
G1 X100.981 Y95.608 E.11799
G1 X100.785 Y95.948 E.01236
G1 X98.087 Y93.25 E.12019
G1 X98.017 Y93.309 E.00288
G1 X97.806 Y93.404 E.00729
G1 X97.72 Y93.419 E.00275
G1 X100.572 Y96.271 E.12705
G1 X100.352 Y96.586 E.0121
G1 X97.206 Y93.441 E.14013
G1 X96.671 Y93.441 E.01685
G1 X100.126 Y96.896 E.15391
G1 X99.881 Y97.187 E.01198
G1 X96.135 Y93.441 E.16688
G1 X95.6 Y93.441 E.01685
G1 X99.637 Y97.479 E.17986
G1 X99.375 Y97.752 E.01192
G1 X95.064 Y93.442 E.19203
G1 X94.529 Y93.442 E.01685
G1 X99.107 Y98.02 E.20394
G1 X98.833 Y98.282 E.01194
G1 X94.199 Y93.648 E.20644
G1 X94.04 Y93.781 E.00653
G1 X93.884 Y93.869 E.00564
G1 X98.542 Y98.527 E.20751
G1 X98.25 Y98.771 E.01199
G1 X93.54 Y94.06 E.20984
G1 X93.3 Y94.194 E.00866
G1 X93.178 Y94.235 E.00405
G1 X97.941 Y98.997 E.21216
G1 X97.626 Y99.218 E.01212
G1 X92.776 Y94.368 E.21606
G1 X92.596 Y94.427 E.00597
G1 X92.332 Y94.46 E.00838
G1 X97.303 Y99.43 E.22143
G1 X96.963 Y99.626 E.01236
G1 X91.855 Y94.518 E.22755
G1 X91.66 Y94.542 E.00619
G1 X91.312 Y94.511 E.01101
G1 X96.623 Y99.823 E.23662
G1 X96.266 Y100.001 E.01257
G1 X90.702 Y94.437 E.24787
G1 X89.929 Y94.2 E.02547
M73 P4 R21
G1 X95.892 Y100.163 E.26564
G1 X95.513 Y100.32 E.01292
G1 X88.635 Y93.442 E.3064
G1 X88.099 Y93.442 E.01688
G1 X95.122 Y100.464 E.31284
G1 X94.715 Y100.593 E.01345
G1 X87.563 Y93.441 E.31861
G1 X87.027 Y93.441 E.01688
G1 X94.3 Y100.714 E.324
G1 X93.861 Y100.811 E.01416
G1 X86.491 Y93.441 E.32832
G1 X85.955 Y93.441 E.01688
G1 X93.565 Y101.051 E.33901
M204 P1000
G1 E-2.24 F4200
;WIPE_START
G1 F7200
G1 X92.34 Y99.826 E-.96
;WIPE_END
G1 Z.4 F720
G1 X97.886 Y92.881 F9000
G1 X97.886 Y87.621
G1 X97.426 Y87.621
G1 X97.426 Y87.232
G1 Z.2 F720
G1 E3.2 F2400
M204 P600
G1 F1200
G1 X89.793 Y79.599 E.34004
G1 X89.35 Y79.691 E.01425
G1 X96.72 Y87.062 E.32834
G1 X96.184 Y87.061 E.01688
G1 X88.912 Y79.789 E.32396
G1 X88.497 Y79.91 E.01362
G1 X95.648 Y87.061 E.31857
G1 X95.112 Y87.061 E.01688
G1 X88.09 Y80.038 E.31284
G1 X87.698 Y80.182 E.01315
G1 X94.576 Y87.061 E.30643
G1 X94.445 Y87.06 E.00413
G1 X94.041 Y86.721 E.01661
G1 X93.282 Y86.302 E.02731
G1 X87.319 Y80.339 E.26564
G1 X87.029 Y80.46 E.0099
